X:1
T:Veni sponsa Christi - Palestrina
T:James Gibb editions
T:#
%%score [ 1 2 3 4 ]
L:1/8
Q:1/4=200
M:none
K:C
V:1 treble nm="Soprano" snm="S"
V:2 treble nm="Alto" snm="A"
V:3 treble-8 nm="Tenor" snm="T"
V:4 bass nm="Bass" snm="B"
V:1
"^Veni sponsa Christi""^G. P. da Palestrina\n(1526-94)" d16 | B8 d8 | e8 (d6 B2 | %3
w: Ve-|ni spon-|sa Chri\- *|
 c2 d2 e6 d2 B2 c2 | d4 c6 B2 B2 AG | A16) | G4 d8 B4- | B4 c8 B4 | (A2 B2 c2 A2 B8) | A8 z8 | %10
w: |||sti, ve- ni|* spon- sa|Chri\- * * * *|sti.|
 z16 | z16 | z16 | d16 | B8 d8 | e8 (d6 c2 | B4 A2 G2) A8 | (d12 c4 | B4 A2 G2 A8) | G16- | %20
w: |||ve-|ni spon-|sa Chri\- *|* * * sti,|Chri\- *||sti,|
 G8 z4 d4- | d4 B4 c4 d4 | (c12 B4 | A2 G2 A2 B2 c2 d2 e4- | e4 d2 c2 B8 | A4 G4) A8 | %26
w: * ac\-|* ci- pe co-|ro\- *|||* * nam,|
 z4 (c8 B2 A2 | B4 G4 A4 B4 | A8 G8 | z16 | z16 | z4 g8 e4 | f4 g4 f8 | c8 d8- | d8 d8 | %35
w: ac\- * *|* ci- pe co-|ro- nam,|||ac- ci-|pe co- ro-|nam, ac\-|* ci-|
 c4 A2 B2 c2 d2 e4- | e2 d2) (c8 B4) | c16 | z16 | z4 c4 c4 c4 | A4 c4 B8 | (c6 B2 A2 G2 F4- | %42
w: pe co- * * * *|* * ro\- *|nam,||quam ti- bi|Do- mi- nus,|Do\- * * * *|
 F2 G2 A8) ^G4 | A16- | A16 | z4 f4 f4 f4 | d4 f4 e8 | d8 (e6 d2 | c2 B2 c6) B2 A4- | A4 G4 A8- | %50
w: * * * mi|nus||quam ti- bi|Do- mi- nus,|quam ti\- *|* * * bi Do\-|* mi- nus,|
 A8 z4 A4- | A4 G4 A4 A4 | c12 B4 | A8 G8- | G8 z8 | z4 d8 c4 | d4 e4 f8- | f4 e4 d8 | (c6 d2 e8- | %59
w: * prae\-|* pa- ra- vit|in ae-|ter- num,||prae- pa-|ra- vit in|* ae- ter-|num, * *|
 e8) z8 | z8 z4 A4- | A4 G4 A4 A4 | c12 B4 | %63
w: |prae\-|* pa- ra- vit|in ae-|
[Q:1/4=199] (A2[Q:1/4=197] G2[Q:1/4=196] A2[Q:1/4=195] B2[Q:1/4=193] c4[Q:1/4=190] B4 | %64
w: ter\- * * * * *|
[Q:1/4=188] A4[Q:1/4=185] c6[Q:1/4=182] B2[Q:1/4=180] A4- | %65
w: |
[Q:1/4=178] A2[Q:1/4=177] G2[Q:1/4=174] G8[Q:1/4=171] ^F4) |[Q:1/4=170] !fermata!G16 |] %67
w: |num.|
V:2
 z16 | G16 | E8 G8 | A8 (G6 E2 | F2 G2 A6 G2 G4- | G4 ^F2 E2 F8) | G16- | G16 | z16 | z16 | %10
w: |Ve-|ni spon-|sa Chri\- *|||sti,||||
 z8 G8- | G8 E8 | G8 A8 | G8 G8 | z4 G4 A4 B4 | G4 (c4 B4 A4- | A2 G2 G8 ^F4) | %17
w: ve\-|* ni|spon- sa|Chri- sti,|ve- ni spon-|sa Chri\- * *||
 G4 (D2 E2 ^F2 G2 A4- | A2 G2 G8) ^F4 | (G6 F2 E4) B,4 | E8 D8- | D8 z4 G4- | G4 E4 F4 G4 | %23
w: sti, ve\- * * * *|* * * ni|spon\- * * sa|Chri- sti,|* ac\-|* ci- pe co-|
 F8 (C6 D2 | E2 F2 G6 F2 D2 E2 | F4) G8 F4 | E8 (D6 C2 | D4 E4 D8 | z8 z4 G4- | G4 E4 F4 G4 | %30
w: ro- nam, *||* ac- ci-|pe co\- *|* ro- nam,|ac\-|* ci- pe co-|
 F8 (C2 D2 E2 C2 | D8 E8) | z4 G4 A4 F2 G2 | A2 B2 c8 B2 A2 | B4 A2 G2 A4) B4 | (A12 G4) | G16 | %37
w: ro- nam, * * *||ac- ci- pe *||* * * * co-|ro\- *|nam,|
 z4 G4 G4 G4 | E4 G4 F4 (E4 | D2 E2 F2 G2 A2 B2 c4- | c2 B2 A8) ^G4 | A16 | z16 | F8 F4 F4 | %44
w: quam ti- bi|Do- mi- nus, Do\-||* * * mi-|nus,||quam ti- bi|
 D4 F4 E8 | (D2 E2 F2 G2 A2 B2 c2 A2 | B4) (c6 B2 G4 | A4) B4 (c6 B2 | A4) G4 A8 | z4 D8 C4 | %50
w: Do- mi- nus,|quam * * * * * * *|* ti\- * *|* bi Do\- *|* mi- nus|prae- pa-|
 D4 D4 F8- | F4 E4 (D4 C2 B,2 | A,2 B,2 C2 D2 E2 F2 G4- | G2 F2 F8 E4 | D8) E6 F2 | G8 z4 A4- | %56
w: ra- vit in|* ae- ter\- * *|||* num, *|* prae\-|
 A4 G4 A4 A4 | c12 B4 | (A6 B2 c4 B4 | A12 G2 F2 | G2 F2 E2 D2) E8 | z4 E8 D4 | E4 E4 G8- | %63
w: * pa- ra- vit|in ae-|ter\- * * *||* * * * num,|prae- pa-|ra- vit in|
 G4 F4 E8 | C8 F8 | E8 D8 | !fermata!D16 |] %67
w: * ae- ter-|num, in|ae- ter-|num.|
V:3
 z16 | z16 | z16 | z16 | z16 | d16 | B8 d8 | e8 (d6 B2 | c2 d2 e6 d2 B2 c2 | d4 c6 B2 B2 AG | %10
w: |||||Ve-|ni spon-|sa Chri\- *|||
 A8) (B6 c2 | d4 e8 c4 | d4 e4 d4 (c4- | c4 B2 A2 B2 G2) g4- | g4 e4 f4 g4 | c8 d8) | G8 z8 | z16 | %18
w: * sti, *|* ve- ni|spon- sa Chri- sti|* * * * * ve\-|* ni spon- sa|Chri\- *|sti,||
 z8 z4 d4- | d4 B4 c4 d4 | c8 G8 | g6 f2 e4 d4 | (e4 A2 B2 c2 d2 e4) | c8 z8 | z8 z4 d4- | %25
w: ac\-|* ci- pe co-|ro- nam,|ac- ci- pe co-|ro\- * * * * *|nam,|ac\-|
 d4 B4 c4 d4 | c8 G8 | z4 c8 B4 | c4 d4 (e6 d2 | B4 c6 B2 G4 | A16) | G8 z4 c4 | d4 e4 f4 (d2 e2 | %33
w: * ci- pe co-|ro- nam,|ac- ci-|pe co- ro\- *|||nam, ac-|ci- pe co- ro\- *|
 f2 g2 a4) f4 (g4- | g4 f2 e2 ^f4) (g4- | g4 !courtesy!=f8 e2 d2 | e8 d8) | c8 z4 c4 | %38
w: * * * nam, co\-|* * * * ro\-|||nam, quam|
 c4 c4 A4 c4 | B4 (A2 B2 c2 d2 e2 c2 | f6 e2 d4) e4 | (A6 B2 c4 d4- | d2 c2 A4 B8) | %43
w: ti- bi Do- mi-|nus, Do\- * * * * *|* * * mi-|nus, * * *||
 (d6 c2 d2 e2 f4- | f2 e2 d8) ^c4 | d8 f8 | g4 (a6 g2 e4) | f4 g4 c8 | z4 e4 e4 e4 | d8 e8 | %50
w: Do\- * * * *|* * * mi-|nus, quam|ti- bi * *|Do- mi- nus,|quam ti- bi|Do- mi-|
 (f6 e2 d8 | c8) z8 | z16 | z16 | z4 d8 c4 | d4 d4 f8- | f4 e4 d8 | c8 (g6 f2 | %58
w: nus, * *||||prae- pa-|ra- vit in|* ae- ter-|num, in *|
 e2 d2 c2 B2 A4) B4 | (c6 d2 e2 f2 e4- | e4 d8 c4 | d4 e4) A8 | z16 | z4 A8 G4 | A4 A4 c8- | %65
w: * * * * * ae-|ter\- * * * *||* * num,||prae- pa-|ra- vit in|
 c4 B4 A8 | !fermata!G16 |] %67
w: * ae- ter-|num.|
V:4
 z16 | z16 | z16 | z16 | z16 | z16 | G,16 | E,8 G,8 | A,8 (G,6 E,2 | F,2 G,2 A,6 G,2 G,4- | %10
w: ||||||Ve-|ni spon-|sa Chri\- *||
 G,4 ^F,4) (G,6 A,2 | B,4 C8 A,4 | B,4 C4 F,8 | G,16 | z16 | z16 | D16 | B,8 D8 | E8 D8 | %19
w: * * sti, *|* ve- ni|spon- sa Chri-|sti,|||ve-|ni spon-|sa Chri-|
 G,8 z4 G,4 | C,4 C8 B,2 A,2 | B,4) G,4 (A,4 B,4 | C6 B,2 A,4 E,4 | F,6 G,2 A,2 B,2 C4- | %24
w: sti, ac-|ci- pe * *|* co- ro\- *|||
 C4 B,2 A,2) G,8 | z16 | z8 z4 G,4- | G,4 E,4 F,4 G,4 | F,8 (C,2 D,2 E,2 F,2 | G,4) A,4 F,4 E,4 | %30
w: * * * nam,||ac\-|* ci- pe co-|ro- nam * * *|* ac- ci- pe|
 (D,2 E,2 F,2 G,2 A,2 B,2 C4- | C4) B,4 C8 | z16 | z16 | z4 D8 B,4 | C4 D4 (C8- | C8 G,8) | C,16 | %38
w: co\- * * * * * *|* ro- nam,|||ac- ci-|pe co- ro\-||nam,|
 z16 | z16 | z16 | z4 F,4 F,4 F,4 | D,4 F,4 E,8 | D,16 | D,8 A,8 | z16 | z16 | z8 z4 C4 | %48
w: |||quam ti- bi|Do- mi nus,|Do-|mi- nus,|||quam|
 C4 C4 A,4 C4 | (_B,8 A,8 | D,16) | z16 | z4 A,8 G,4 | A,4 A,4 C8- | C4 B,4 A,8 | G,8 z8 | z16 | %57
w: ti- bi Do- mi-|nus, *|||prae- pa-|ra- vit in|* ae- ter-|num,||
 z16 | A,12 G,4 | A,4 A,4 C8- | C4 B,4 (A,6 G,2 | F,4 E,4 F,8) | (C,6 D,2 E,2 F,2 G,4) | D,8 E,8 | %64
w: |prae- pa-|ra- vit in|* ae- ter\- *||num, * * * *|in ae-|
 (F,16 | C,8 D,8) | !fermata!G,16 |] %67
w: ter\-||num.|

